SVG_Azure_All/Application Gateway WAF Policy Setting.svg

<?xml version="1.0" encoding="UTF-8" standalone="no"?>
<!-- Generated by Microsoft Visio, SVG Export Application Gateway WAF Policy Setting.svg Page-1 -->

<svg
   xmlns:dc="http://purl.org/dc/elements/1.1/"
   xmlns:cc="http://creativecommons.org/ns#"
   xmlns:rdf="http://www.w3.org/1999/02/22-rdf-syntax-ns#"
   xmlns:svg="http://www.w3.org/2000/svg"
   xmlns="http://www.w3.org/2000/svg"
   xmlns:sodipodi="http://sodipodi.sourceforge.net/DTD/sodipodi-0.dtd"
   xmlns:inkscape="http://www.inkscape.org/namespaces/inkscape"
   width="0.78736442in"
   height="0.78736389in"
   viewBox="0 0 56.69005 56.690012"
   xml:space="preserve"
   class="st2"
   version="1.1"
   id="svg25"
   sodipodi:docname="Application Gateway WAF Policy Setting.svg"
   style="font-size:12px;overflow:visible;color-interpolation-filters:sRGB;fill:none;fill-rule:evenodd;stroke-linecap:square;stroke-miterlimit:3"
   inkscape:version="0.92.5 (2060ec1f9f, 2020-04-08)"><metadata
   id="metadata29"><rdf:RDF><cc:Work
       rdf:about=""><dc:format>image/svg+xml</dc:format><dc:type
         rdf:resource="http://purl.org/dc/dcmitype/StillImage" /></cc:Work></rdf:RDF></metadata><sodipodi:namedview
   pagecolor="#ffffff"
   bordercolor="#666666"
   borderopacity="1"
   objecttolerance="10"
   gridtolerance="10"
   guidetolerance="10"
   inkscape:pageopacity="0"
   inkscape:pageshadow="2"
   inkscape:window-width="640"
   inkscape:window-height="480"
   id="namedview27"
   showgrid="false"
   inkscape:zoom="1.324162"
   inkscape:cx="37.795211"
   inkscape:cy="37.796534"
   inkscape:window-x="0"
   inkscape:window-y="0"
   inkscape:window-maximized="0"
   inkscape:current-layer="svg25" />
	<style
   type="text/css"
   id="style2">
	<![CDATA[
		.st1 {fill:url(#grad0-6);stroke:none;stroke-linecap:butt;stroke-width:38.4882}
		.st2 {fill:none;fill-rule:evenodd;font-size:12px;overflow:visible;stroke-linecap:square;stroke-miterlimit:3}
	]]>
	</style>

	<defs
   id="Patterns_And_Gradients">
		<linearGradient
   id="grad0-6"
   x1="-1.3594408e-05"
   y1="76.980024"
   x2="56.690018"
   y2="76.980024"
   gradientUnits="userSpaceOnUse">
			<stop
   offset="0"
   stop-color="#b6b8ba"
   stop-opacity="1"
   id="stop4" />
			<stop
   offset="1"
   stop-color="#616161"
   stop-opacity="1"
   id="stop6" />
		</linearGradient>
	</defs>
	<g
   id="g23"
   transform="translate(-38.488186,-38.491797)">
		<title
   id="title10">Page-1</title>
		<g
   id="group9628-1"
   transform="translate(38.4882,-38.4882)">
			<title
   id="title12">Application Gateway WAF Policy Setting</title>
			<g
   id="group9629-2">
				<title
   id="title14">g8</title>
				<g
   id="shape9630-3">
					<title
   id="title16">path4</title>
					<path
   d="m 56.69,107.63 v -4.97 a 1.06583,1.06576 -180 0 0 -0.69,-1 l -0.21,-0.08 -6.45,-2.12 a 1.06583,1.06576 0 0 1 -0.66,-0.6 l -1.45,-3.54 a 1.06583,1.06576 0 0 1 0.03,-0.85 l 2.99,-6.39 a 1.06583,1.06576 -180 0 0 -0.21,-1.2 l -3.46,-3.46 a 1.06583,1.06576 -180 0 0 -1.23,-0.2 l -0.22,0.11 -6.03,3.06 a 1.06583,1.06576 0 0 1 -0.89,0.04 l -3.53,-1.45 a 1.06583,1.06576 0 0 1 -0.6,-0.63 l -2.42,-6.67 a 1.06583,1.06576 -180 0 0 -1,-0.7 h -4.98 a 1.06583,1.06576 -180 0 0 -1,0.69 l -0.08,0.21 -2.11,6.45 a 1.06583,1.06576 0 0 1 -0.61,0.65 l -3.53,1.45 a 1.06583,1.06576 0 0 1 -0.86,-0.02 l -6.26,-2.99 a 1.06583,1.06576 -180 0 0 -1.21,0.21 l -3.47,3.46 a 1.06583,1.06576 -180 0 0 -0.2,1.23 l 0.11,0.22 3.07,6.03 a 1.05827,1.0582 0 0 1 0.04,0.89 l -1.45,3.53 a 1.06583,1.06576 0 0 1 -0.63,0.59 l -6.78,2.43 A 1.06583,1.06576 -180 0 0 0,103.02 v 4.97 c 0,0.44 0.28,0.84 0.69,1 l 0.22,0.08 6.44,2.11 a 1.06583,1.06576 0 0 1 0.66,0.61 l 1.45,3.53 a 1.06583,1.06576 0 0 1 -0.02,0.86 l -3,6.38 a 1.06583,1.06576 -180 0 0 0.21,1.21 l 3.46,3.46 a 1.06583,1.06576 -180 0 0 1.24,0.2 l 0.22,-0.11 6.02,-3.06 a 1.06583,1.06576 0 0 1 0.89,-0.04 l 3.53,1.44 c 0.28,0.12 0.5,0.34 0.6,0.63 l 2.42,6.68 a 1.05827,1.0582 -180 0 0 1,0.7 h 4.98 a 1.06583,1.06576 -180 0 0 1,-0.69 l 0.08,-0.22 2.11,-6.45 a 1.06583,1.06576 0 0 1 0.61,-0.65 l 3.53,-1.45 a 1.06583,1.06576 0 0 1 0.86,0.02 l 6.38,3 c 0.41,0.19 0.89,0.11 1.21,-0.21 l 3.46,-3.46 a 1.06583,1.06576 -180 0 0 0.2,-1.24 l -0.11,-0.22 -3.06,-6.02 a 1.06205,1.06198 0 0 1 -0.04,-0.89 l 1.45,-3.53 a 1.06583,1.06576 0 0 1 0.62,-0.6 l 6.68,-2.42 a 1.06583,1.06576 -180 0 0 0.7,-1.01 z m -28.06,14.16 c -12.7,0 -21.98,-14.61 -11.97,-27.94 a 1.17165,1.17158 0 0 1 0.23,-0.23 c 13.33,-10.01 27.94,-0.73 27.94,11.97 a 16.1499,16.1488 0 0 1 -16.11,16.2 z"
   class="st1"
   id="path18"
   inkscape:connector-curvature="0"
   style="fill:url(#grad0-6);stroke:none;stroke-width:38.48820114;stroke-linecap:butt" />
				</g>
			</g>
		</g>
	</g>
</svg>

<?xml version="1.0" encoding="UTF-8" standalone="no"?>
<!DOCTYPE svg PUBLIC "-//W3C//DTD SVG 1.1//EN" "http://www.w3.org/Graphics/SVG/1.1/DTD/svg11.dtd">
<!-- Generated by Microsoft Visio, SVG Export Application Gateway WAF Policy Setting.svg Page-1 -->
<svg xmlns="http://www.w3.org/2000/svg" xmlns:xlink="http://www.w3.org/1999/xlink" xmlns:ev="http://www.w3.org/2001/xml-events"
		width="1.85652in" height="1.85652in" viewBox="0 0 133.669 133.669" xml:space="preserve" color-interpolation-filters="sRGB"
		class="st2">
	<style type="text/css">
	<![CDATA[
		.st1 {fill:url(#grad0-6);stroke:none;stroke-linecap:butt;stroke-width:38.4882}
		.st2 {fill:none;fill-rule:evenodd;font-size:12px;overflow:visible;stroke-linecap:square;stroke-miterlimit:3}
	]]>
	</style>

	<defs id="Patterns_And_Gradients">
		<linearGradient id="grad0-6" x1="0" y1="0" x2="1" y2="0" gradientTransform="rotate(90 0.5 0.5)">
			<stop offset="0" stop-color="#b6b8ba" stop-opacity="1"/>
			<stop offset="1" stop-color="#616161" stop-opacity="1"/>
		</linearGradient>
	</defs>
	<g>
		<title>Page-1</title>
		<g id="group9423-1" transform="translate(38.4882,-38.4882)">
			<title>Application Gateway WAF Policy Setting</title>
			<g id="group9424-2">
				<title>g8</title>
				<g id="shape9425-3">
					<title>path4</title>
					<path d="M56.69 107.63 L56.69 102.66 A1.06583 1.06576 -180 0 0 56 101.66 L55.79 101.58 L49.34 99.46 A1.06583
								 1.06576 0 0 1 48.68 98.86 L47.23 95.32 A1.06583 1.06576 0 0 1 47.26 94.47 L50.25 88.08 A1.06583
								 1.06576 -180 0 0 50.04 86.88 L46.58 83.42 A1.06583 1.06576 -180 0 0 45.35 83.22 L45.13 83.33 L39.1
								 86.39 A1.06583 1.06576 0 0 1 38.21 86.43 L34.68 84.98 A1.06583 1.06576 0 0 1 34.08 84.35 L31.66
								 77.68 A1.06583 1.06576 -180 0 0 30.66 76.98 L25.68 76.98 A1.06583 1.06576 -180 0 0 24.68 77.67 L24.6
								 77.88 L22.49 84.33 A1.06583 1.06576 0 0 1 21.88 84.98 L18.35 86.43 A1.06583 1.06576 0 0 1 17.49
								 86.41 L11.23 83.42 A1.06583 1.06576 -180 0 0 10.02 83.63 L6.55 87.09 A1.06583 1.06576 -180 0 0 6.35
								 88.32 L6.46 88.54 L9.53 94.57 A1.05827 1.0582 0 0 1 9.57 95.46 L8.12 98.99 A1.06583 1.06576 0 0
								 1 7.49 99.58 L0.71 102.01 A1.06583 1.06576 -180 0 0 -0 103.02 L0 107.99 C0 108.43 0.28 108.83 0.69
								 108.99 L0.91 109.07 L7.35 111.18 A1.06583 1.06576 0 0 1 8.01 111.79 L9.46 115.32 A1.06583 1.06576
								 0 0 1 9.44 116.18 L6.44 122.56 A1.06583 1.06576 -180 0 0 6.65 123.77 L10.11 127.23 A1.06583 1.06576
								 -180 0 0 11.35 127.43 L11.57 127.32 L17.59 124.26 A1.06583 1.06576 0 0 1 18.48 124.22 L22.01 125.66
								 C22.29 125.78 22.51 126 22.61 126.29 L25.03 132.97 A1.05827 1.0582 -180 0 0 26.03 133.67 L31.01
								 133.67 A1.06583 1.06576 -180 0 0 32.01 132.98 L32.09 132.76 L34.2 126.31 A1.06583 1.06576 0 0 1
								 34.81 125.66 L38.34 124.21 A1.06583 1.06576 0 0 1 39.2 124.23 L45.58 127.23 C45.99 127.42 46.47
								 127.34 46.79 127.02 L50.25 123.56 A1.06583 1.06576 -180 0 0 50.45 122.32 L50.34 122.1 L47.28 116.08
								 A1.06205 1.06198 0 0 1 47.24 115.19 L48.69 111.66 A1.06583 1.06576 0 0 1 49.31 111.06 L55.99 108.64
								 A1.06583 1.06576 -180 0 0 56.69 107.63 ZM28.63 121.79 C15.93 121.79 6.65 107.18 16.66 93.85 A1.17165
								 1.17158 0 0 1 16.89 93.62 C30.22 83.61 44.83 92.89 44.83 105.59 A16.1499 16.1488 0 0 1 28.72 121.79
								 L28.63 121.79 Z" class="st1"/>
				</g>
			</g>
		</g>
	</g>
</svg>
